X:1
T:Let Us Love One Another
T:Let Us Love One Another
T:Oriola, 1860
T:Charles Swain, 1842
T:Public Domain Courtesy of the Cyber Hymnal™
C:Oriola, 1860
Z:Public Domain
Z:Courtesy of the Cyber Hymnal™
%%score 1 2
L:1/8
Q:1/4=115
M:6/4
K:A
V:1 treble 
V:2 bass 
V:1
 [CE][CE] | [CE]2 [CA]2 [DB]2 [Ec]2 [DB]2 [CA]2 | [DB]2 [DA]2 [DF]2 [CE]4 [CE][CE] | %3
w: 1.~Let us|love one an- o- ther, Not|long may we stay In this|
w: 2.~And the|fond- est, the pur- est, The|tru- est that met, Ev- er|
w: 3.~Thus we’ll|love one an- o- ther, ’Midst|sor- row the worst, Un- al-|
w: 4.~There are|some sweet af- fec- tions That|earth can- not buy, That cling|
 [CE]2 [CA]2 [DB]2 [Ec]2 [DB]2 [CA]2 | [B,G]2 [B,G]2 [CA]2 [DB]4 [DE]2 | %5
w: brief world of mourn- ing, So|brief is life’s day; Some|
w: still found the need To for-|give and for- get; Then|
w: tered and fond As we loved|at the first; Tho’ the|
w: but the clos- er When sor-|row draws nigh, And re-|
 [CE]2 [CA]2 [DB]2 [Ec]2 [DB]2 [CA]2 | [DG]2 [DF]2 [DF]2 [FA]4 [EG][DF] | %7
w: fade ere ’tis noon, And few|lin- ger till eve; O, there|
w: O, tho’ the hopes That we|nour- ished de- cay, Let us|
w: false wing of plea- sure May|change and for- sake, And the|
w: main with us ye, Though all|else pass a- way— Yes, we’ll|
 [CE]2 [CA]2 [Ec]2 [Fd]2 [Ec]2 [DB]2 | [CA]2 [Ec]2 [DB]2 [CA]4 |] %9
w: breaks not a heart But leaves|some- one to grieve.|
w: love one an- o- ther As|long as we may.|
w: bright urn of wealth In- to|par- ti- cles break.|
w: love one an- o- ther As|long as we stay.|
V:2
 A,,A,, | A,,2 A,,2 A,,2 A,,2 A,,2 A,,2 | D,2 D,2 D,2 A,,4 A,,A,, | A,,2 A,,2 A,,2 A,,2 A,,2 A,,2 | %4
 E,2 E,2 E,2 E,4 E,2 | A,,2 A,,2 A,,2 A,,2 A,,2 A,,2 | D,2 D,2 D,2 D,4 D,D, | %7
 A,,2 A,,2 A,,2 D,2 D,2 D,2 | E,2 E,2 E,2 A,,4 |] %9

